X:1
T:Title
%%score { 1 | 2 }
L:1/8
Q:1/4=113
M:6/8
K:Eb
V:1 treble nm="Grand Piano"
V:2 bass 
V:1
 [GB]2 [_G=A] [=GB]2 [_Ac] | [GB]3 [EG]3 | [DF]2 [EG] [FA]2 [DB] | [EG]6 | %4
w: W.~Howard~Doane * * *||||
 [GB]2 [_G=A] [=GB]2 [_Ac] | [GB]3 [Ge]3 | [Fd]2 [Ge] [Fd]2 [Ec] | [DB]6 | [FA]2 [=EG] [FA]2 [GB] | %9
w: |||||
 [FA]2 [EG] [DF]3 | [EG]2 [FA] [GB]2 [Ac] | [GB]6 | c2 A e2 c | [GB]3 [Ge]3 | %14
w: |||||
 [EG]2 [FA] [EG]2 [DF] | E6 | .[GB]3 .[GB]2 [GB] | [Ge]3 .[GB]3 | c3 c3 | c6 | %20
w: ||||||
 .[=Ac]3 .[Ac]2 [Ac] | [=Af]3 .[Fc]3 | [Fd]3 [Fd]3 | [Fd]6 | .[GB]3 .[GB]2 [GB] | [Ge]3 .[GB]3 | %26
w: ||||||
 c3 c3 | c6 | .e3 [Bd]2 [Ac] |[M:15/16] [GB]3 [Ge]3/2- [Ge]3 |[M:3/4] [EG]3 [DF]3 | E6 |] %32
w: ||||||
V:2
 [E,E]2 [E,E] [E,E]2 [E,E] | [E,E]3 [E,B,]3 | [B,,B,]2 [B,,B,] [B,,B,]2 [B,,B,] | [E,B,]6 | %4
 [E,B,]2 [E,B,] [E,B,]2 [E,B,] | [E,B,]3 [E,B,]3 | [F,B,]2 [F,B,] [F,B,]2 [F,=A,] | [B,,B,]6 | %8
 [B,,B,]2 [B,,B,] [B,,B,]2 [B,,B,] | [B,,B,]3 [B,,B,]3 | [E,B,]2 [E,B,] [E,E]2 [E,E] | [E,E]6 | %12
 [A,EA]2 [A,C] [A,CA]2 [A,EA] | [E,E]3 [E,B,]3 | [B,,B,]2 [B,,B,] [B,,B,]2 [B,,A,] | [E,G,]6 | %16
 .[E,E]3 .[E,E]2 [E,E] | [E,B,]3 .[E,E]3 | [A,EA]3 [A,EA]3 | [A,EA]6 | %20
 .[F,F]3 .[F,F]2[K:bass] [F,F] | [F,C]3 .[F,=A,]3 | [B,,B,]3 [B,,B,]3 | [B,,B,]6 | %24
 .[E,B,]3 .[E,E]2 [E,E] | [E,B,]3 .[E,E]3 | [A,EA]3 [A,EA]3 | [A,EA]6 | %28
 .[A,CE]3 [A,E]2[K:bass] [A,E] |[M:15/16] [E,E]3 [E,B,]3/2- [E,B,]3 |[M:3/4] [B,,B,]3 [B,,A,]3 | %31
 [E,G,]6 |] %32

